symbols/web/door_back/materialsymbolsoutlined/door_back_wght100gradN25fill1_48px.svg

<svg xmlns="http://www.w3.org/2000/svg" height="48" width="48"><path d="M8.6 39.4v-1.1h4v-27q0-1.1.8-1.9.8-.8 1.9-.8h17.4q1.1 0 1.9.8.8.8.8 1.9v27h4v1.1Zm10.7-14.15q.6 0 .95-.35t.35-.95q0-.6-.35-.95t-.95-.35q-.6 0-.95.35t-.35.95q0 .6.35.95t.95.35Z"/></svg>

<svg xmlns="http://www.w3.org/2000/svg" height="48" width="48"><path d="M8.6 39.4V38.3H12.6V11.3Q12.6 10.2 13.4 9.4Q14.2 8.6 15.3 8.6H32.7Q33.8 8.6 34.6 9.4Q35.4 10.2 35.4 11.3V38.3H39.4V39.4ZM19.3 25.25Q19.9 25.25 20.25 24.9Q20.6 24.55 20.6 23.95Q20.6 23.35 20.25 23Q19.9 22.65 19.3 22.65Q18.7 22.65 18.35 23Q18 23.35 18 23.95Q18 24.55 18.35 24.9Q18.7 25.25 19.3 25.25Z"/></svg>
